Sources/FrostedUI/Resources/Icons.xcassets/export12.imageset/export-12.svg

<svg width="12" height="12" viewBox="0 0 12 12" fill="none" xmlns="http://www.w3.org/2000/svg" data-fui-icon="true">
  <path
    d="M4.25 2C4.66421 2 5 2.33579 5 2.75C5 3.16421 4.66421 3.5 4.25 3.5H2.90039C2.12719 3.5 1.5 4.12719 1.5 4.90039V9.09961C1.5 9.87281 2.12719 10.5 2.90039 10.5H7.09961C7.87281 10.5 8.5 9.87281 8.5 9.09961V7.75C8.5 7.33579 8.83579 7 9.25 7C9.66421 7 10 7.33579 10 7.75V9.09961C10 10.7012 8.70123 12 7.09961 12H2.90039C1.29876 12 0 10.7012 0 9.09961V4.90039C0 3.29876 1.29876 2 2.90039 2H4.25ZM11.25 0C11.6642 3.6076e-05 12 0.335809 12 0.75V4.25C12 4.66419 11.6642 4.99996 11.25 5C10.8358 5 10.5 4.66421 10.5 4.25V2.56055L6.28027 6.78027C5.98738 7.07317 5.51262 7.07316 5.21973 6.78027C4.92684 6.48738 4.92684 6.01262 5.21973 5.71973L9.43945 1.5H7.75C7.33579 1.5 7 1.16421 7 0.75C7 0.335786 7.33579 0 7.75 0H11.25Z"
    fill="currentColor"
  />
</svg>

<svg xmlns="http://www.w3.org/2000/svg" width="12" height="12" fill="none" data-fui-icon="true" viewBox="0 0 12 12"><path fill="currentColor" d="M4.25 2a.75.75 0 0 1 0 1.5H2.9a1.4 1.4 0 0 0-1.4 1.4v4.2a1.4 1.4 0 0 0 1.4 1.4h4.2a1.4 1.4 0 0 0 1.4-1.4V7.75a.75.75 0 0 1 1.5 0V9.1A2.9 2.9 0 0 1 7.1 12H2.9A2.9 2.9 0 0 1 0 9.1V4.9A2.9 2.9 0 0 1 2.9 2zm7-2a.75.75 0 0 1 .75.75v3.5a.75.75 0 0 1-1.5 0V2.56L6.28 6.78a.75.75 0 1 1-1.06-1.06L9.44 1.5H7.75a.75.75 0 0 1 0-1.5z"/></svg>
